X:3317
T:Kitty in the Lane
O:england
R:reel
D:Matt Molloy & Sean Keane: Contentment is Wealth
M:C|
K:Dmix
dcAB c2cA|GEED cBce|dcAB cBcA|GEcE EDD2|
dcAB c2cA|GEED cBce|dcAB cded|cAGE EDD2:|
|:Adde fded|cBca gece|d^cde ed (3Bcd|e2ag edcA|
d^cde fded|cBcd efg2|afge (3Bcd ed|cAGE EDD2:|


